src/standard/apps-multiple.svg

<svg xmlns="http://www.w3.org/2000/svg" viewBox="0 0 36 36">
  <path d="M26 7.38a.63.63 0 0 0-.62.63.63.63 0 0 0 1.25 0 .63.63 0 0 0-.63-.63Zm2 0a.63.63 0 0 0-.62.63.63.63 0 0 0 1.25 0 .63.63 0 0 0-.63-.63Z"/>
  <path d="M31 4.38H11a.61.61 0 0 0-.62.62v20a.61.61 0 0 0 .62.62h20a.61.61 0 0 0 .62-.62V5a.61.61 0 0 0-.62-.62Zm-.62 20H11.62V5.62h18.76Z"/>
  <path d="M28 27.38H8.62V8a.62.62 0 0 0-1.24 0v20a.61.61 0 0 0 .62.62h20a.62.62 0 0 0 0-1.24Z"/>
  <path d="M25 30.38H5.62V11a.62.62 0 0 0-1.24 0v20a.61.61 0 0 0 .62.62h20a.62.62 0 0 0 0-1.24Z"/>
</svg>

<svg id="fc3a1e81-cc87-447e-a848-e35eadb30395" data-name="Icon" xmlns="http://www.w3.org/2000/svg" viewBox="0 0 36 36">
  <title>Multiple apps icon - Black</title>
<desc>application, develop, development, code, square, button, program, software, run, box, stack, software and technologies</desc>
<metadata><?xpacket begin="﻿" id="W5M0MpCehiHzreSzNTczkc9d"?>
<x:xmpmeta xmlns:x="adobe:ns:meta/" x:xmptk="Adobe XMP Core 8.0-c001 1.000000, 0000/00/00-00:00:00        ">
   <rdf:RDF xmlns:rdf="http://www.w3.org/1999/02/22-rdf-syntax-ns#">
      <rdf:Description rdf:about=""
            xmlns:xmp="http://ns.adobe.com/xap/1.0/"
            xmlns:dc="http://purl.org/dc/elements/1.1/"
            xmlns:cq="http://www.day.com/jcr/cq/1.0"
            xmlns:tiff="http://ns.adobe.com/tiff/1.0/">
         <xmp:rhcc-effective-on>2023-12-08T17:42:03.980Z</xmp:rhcc-effective-on>
         <xmp:rhcc-metadata-complete-moderator>pending</xmp:rhcc-metadata-complete-moderator>
         <xmp:rhcc-translation-id>TRA6349eb40-78ea-4538-b3cb-4fcf9a4e06c0</xmp:rhcc-translation-id>
         <xmp:brand-content-type>Icon</xmp:brand-content-type>
         <xmp:CreateDate>2023-12-08T17:42:03.980Z</xmp:CreateDate>
         <xmp:rhcc-effective-on-set-on-upload>true</xmp:rhcc-effective-on-set-on-upload>
         <xmp:rhcc-metadata-complete-uploader>pending</xmp:rhcc-metadata-complete-uploader>
         <xmp:rhcc-file-last-modified>2023-12-08T17:42:21.198Z</xmp:rhcc-file-last-modified>
         <xmp:rhcc-audience>rhcc-audience:internal</xmp:rhcc-audience>
         <xmp:rhcc-rights-restricted>no</xmp:rhcc-rights-restricted>
         <xmp:brand-content-subtype>Icon</xmp:brand-content-subtype>
         <xmp:rhcc-derivative-id>DER6349eb40-78ea-4538-b3cb-4fcf9a4e06c0</xmp:rhcc-derivative-id>
         <xmp:brand-logo-color>Black</xmp:brand-logo-color>
         <xmp:rhcc-notify-portal-subscribers-on-change>yes</xmp:rhcc-notify-portal-subscribers-on-change>
         <dc:format>image/svg+xml</dc:format>
         <dc:modified>2024-02-09T20:14:37.413Z</dc:modified>
         <dc:title>
            <rdf:Alt>
               <rdf:li xml:lang="x-default">Multiple apps icon - Black</rdf:li>
            </rdf:Alt>
         </dc:title>
         <dc:description>
            <rdf:Alt>
               <rdf:li xml:lang="x-default">application, develop, development, code, square, button, program, software, run, box, stack, software and technologies</rdf:li>
            </rdf:Alt>
         </dc:description>
         <cq:lastReplicationAction_scene7>Activate</cq:lastReplicationAction_scene7>
         <cq:lastReplicationAction_publish>Activate</cq:lastReplicationAction_publish>
         <cq:lastReplicated_publish>2024-02-09T21:51:20.635Z</cq:lastReplicated_publish>
         <cq:lastReplicatedBy>workflow-process-service</cq:lastReplicatedBy>
         <cq:lastReplicationAction>Activate</cq:lastReplicationAction>
         <cq:lastReplicatedBy_publish>workflow-process-service</cq:lastReplicatedBy_publish>
         <cq:isDelivered>true</cq:isDelivered>
         <cq:lastReplicated>2024-02-09T21:51:20.635Z</cq:lastReplicated>
         <cq:lastReplicatedBy_scene7>workflow-process-service</cq:lastReplicatedBy_scene7>
         <cq:lastReplicated_scene7>2024-02-09T21:51:20.635Z</cq:lastReplicated_scene7>
         <tiff:ImageLength>36</tiff:ImageLength>
         <tiff:ImageWidth>36</tiff:ImageWidth>
      </rdf:Description>
   </rdf:RDF>
</x:xmpmeta>
                                                                                                    
                                                                                                    
                                                                                                    
                                                                                                    
                                                                                                    
                                                                                                    
                                                                                                    
                                                                                                    
                                                                                                    
                                                                                                    
                                 
<?xpacket end="w"?></metadata>
<g>
    <path d="M26,7.38a.63.63,0,0,0-.62.63.63.63,0,0,0,1.25,0A.63.63,0,0,0,26,7.38Z"/>
    <path d="M28,7.38a.63.63,0,0,0-.62.63.63.63,0,0,0,1.25,0A.63.63,0,0,0,28,7.38Z"/>
    <g>
      <path d="M31,4.38H11a.61.61,0,0,0-.62.62V25a.61.61,0,0,0,.62.62H31a.61.61,0,0,0,.62-.62V5A.61.61,0,0,0,31,4.38Zm-.62,20H11.62V5.62H30.38Z"/>
      <path d="M28,27.38H8.62V8A.62.62,0,0,0,7.38,8V28a.61.61,0,0,0,.62.62H28a.62.62,0,0,0,0-1.24Z"/>
      <path d="M25,30.38H5.62V11a.62.62,0,0,0-1.24,0V31a.61.61,0,0,0,.62.62H25a.62.62,0,0,0,0-1.24Z"/>
    </g>
  </g>
</svg>
